app/javascript/packs/images/cart.svg

<svg width="45" height="48" viewBox="0 0 45 48" version="1.1" xmlns="http://www.w3.org/2000/svg" xmlns:xlink="http://www.w3.org/1999/xlink">
<title>Page 1</title>
<desc>Created using Figma</desc>
<g id="Canvas" transform="translate(-2111 -277)">
<g id="Page 1">
<g id="Fill 1">
<use xlink:href="#path0_fill" transform="translate(2124 314.224)" fill="#9C6B1F"/>
</g>
<g id="Fill 3">
<use xlink:href="#path0_fill" transform="translate(2143 314.224)" fill="#9C6B1F"/>
</g>
<g id="Group 7">
<mask id="mask0_outline" mask-type="alpha">
<g id="Clip 6">
<use xlink:href="#path1_fill" transform="translate(2111 277)" fill="#FFFFFF"/>
</g>
</mask>
<g id="Fill 5" mask="url(#mask0_outline)">
<use xlink:href="#path2_fill" transform="translate(2111 277)" fill="#9C6B1F"/>
</g>
</g>
</g>
</g>
<defs>
<path id="path0_fill" fill-rule="evenodd" d="M 5.49993 8.08178C 3.98463 8.08178 2.75024 6.87191 2.75024 5.38806C 2.75024 3.9036 3.98463 2.69373 5.49993 2.69373C 7.01523 2.69373 8.24963 3.9036 8.24963 5.38806C 8.24963 6.87191 7.01523 8.08178 5.49993 8.08178L 5.49993 8.08178ZM 5.5 0C 2.46693 0 0 2.41611 0 5.38806C 0 8.3594 2.46693 10.7755 5.5 10.7755C 8.53307 10.7755 11 8.3594 11 5.38806C 11 2.41611 8.53307 0 5.5 0L 5.5 0Z"/>
<path id="path1_fill" fill-rule="evenodd" d="M 44.9298 35.13L 44.9298 0L 0 0L 0 35.13L 44.9298 35.13L 44.9298 35.13Z"/>
<path id="path2_fill" fill-rule="evenodd" d="M 40.4561 20.0812C 40.3145 20.9354 39.4133 21.7812 38.5601 21.8566L 11.7785 24.2157L 9.12769 8.10434L 41.3309 8.10434C 41.6429 8.10434 41.9039 8.21257 42.0665 8.41017C 42.2291 8.60717 42.2933 8.88565 42.2429 9.19635L 42.2453 9.19878L 40.4561 20.0812ZM 44.1066 6.66393L 44.1042 6.66697C 43.4346 5.86438 42.4242 5.40471 41.3334 5.40471L 8.6856 5.40471L 8.4216 3.79406C 8.0718 1.66781 6.1308 0 4.0002 0L 1.3332 0C 0.5976 0 0 0.60559 0 1.35163C 0 2.09707 0.5976 2.70266 1.3332 2.70266L 4.0002 2.70266C 4.8186 2.70266 5.6562 3.42134 5.7894 4.24035L 10.2456 31.3363C 10.5948 33.4631 12.5364 35.1303 14.667 35.1303L 41.3334 35.1303C 42.0696 35.1303 42.6666 34.5253 42.6666 33.7793C 42.6666 33.0333 42.0696 32.4283 41.3334 32.4283L 14.667 32.4283C 13.848 32.4283 13.011 31.7096 12.8772 30.8906L 12.219 26.891L 38.7924 24.5483C 40.8588 24.3671 42.747 22.5996 43.0884 20.5244L 44.8776 9.64202C 45.0564 8.55062 44.7762 7.46408 44.1066 6.66393L 44.1066 6.66393Z"/>
</defs>
</svg>

<svg xmlns:xlink="http://www.w3.org/1999/xlink" width="45" height="48">
    <g fill="#9C6B1F">
        <path fill-rule="evenodd" d="M18.5 45.307c-1.515 0-2.75-1.21-2.75-2.694 0-1.485 1.235-2.694 2.75-2.694s2.75 1.21 2.75 2.694-1.235 2.694-2.75 2.694zm0-8.082c-3.033 0-5.5 2.416-5.5 5.388C13 45.584 15.467 48 18.5 48s5.5-2.416 5.5-5.387c0-2.972-2.467-5.388-5.5-5.388z"></path>
        <path fill-rule="evenodd" d="M37.5 45.307c-1.515 0-2.75-1.21-2.75-2.694 0-1.485 1.235-2.694 2.75-2.694 1.516 0 2.75 1.21 2.75 2.694s-1.234 2.694-2.75 2.694zm0-8.082c-3.033 0-5.5 2.416-5.5 5.388C32 45.584 34.467 48 37.5 48s5.5-2.416 5.5-5.387c0-2.972-2.467-5.388-5.5-5.388z"></path>
        <path fill-rule="evenodd" d="M40.456 20.081c-.141.854-1.043 1.7-1.896 1.776l-26.78 2.359L9.128 8.104H41.33c.312 0 .573.109.736.306.162.197.227.476.176.786l.002.003-1.789 10.882zm3.65-13.417l-.002.003c-.67-.803-1.68-1.262-2.77-1.262H8.685l-.264-1.61C8.072 1.667 6.13 0 4 0H1.333C.598 0 0 .606 0 1.352c0 .745.598 1.35 1.333 1.35H4c.819 0 1.656.72 1.79 1.538l4.456 27.096c.349 2.127 2.29 3.794 4.421 3.794h26.666c.737 0 1.334-.605 1.334-1.35 0-.747-.597-1.352-1.334-1.352H14.667c-.819 0-1.656-.718-1.79-1.537l-.658-4 26.573-2.343c2.067-.18 3.955-1.948 4.296-4.024l1.79-10.882c.178-1.091-.102-2.178-.771-2.978z"></path>
    </g>
</svg>
